X:6
T:Johnny Can't Dance
R:Two-Step
C:as played by Dirk Powel on Cajun Accordion DVD; 1 = index finger, 4 = pinkie, < pull, > push
N:The numbers here are NOT the button numbers. They are finger numbers: 1 index, 2 middle, 3 ring, 4 pinkie.
M:4/4
L:1/8
Q:1/4=120
K:Gmix
|"3<"B ["14<".D2d2][Dd][D3d3] "2<"B   | ["14<"Aa]"1>"G"14>"[Gg]"3>"e "3<"d"2<"B["14>"Gg][Gg] | B [.D2d2][Dd][D3d3] B | ["14<"Aa]"14<"[Aa]"3<"d"3>"e["14>"G4g4] :|
|"14<"[Bb][Bb]"2<"dd"14<"[B2b2]"2<"dd | [Aa]G[Gg]e dB[Gg][Gg]                                |[Bb][Bb]dd[B2b2]dd | [Aa][Aa]de [G4g4]:|
